X: 18486
T: Hyde And Seek
R: jig
M: 6/8
K: Eminor
K:Emin
|:"em"e2 b gfe|"B"fgf "em"eBe|e2 b geg|"Am"abc' "B"b3|
"em"e2 b gfe|"B"fgf "em"eBe|"fbim"fga "em"gfe|"B"fgf "em"e3:|
|:"Am"a2 b c'ba|"em"g2 a bag|"B"f2 g agf|"em"gab "B"f3|
"Am"a2 b c'ba|"em"g2 a bag|"B"f2 g agf|"em"eBe e3:|

